img/svg/service-food.svg

<?xml version="1.0" encoding="utf-8"?><!DOCTYPE svg PUBLIC "-//W3C//DTD SVG 1.1//EN" "http://www.w3.org/Graphics/SVG/1.1/DTD/svg11.dtd"><svg version="1.1" baseProfile="full" xmlns="http://www.w3.org/2000/svg" xmlns:xlink="http://www.w3.org/1999/xlink" xmlns:ev="http://www.w3.org/2001/xml-events"   height="12px"   width="7px" ><path fill="rgb( 255, 102, 0 )" d="M6.79199999999997,11.803 C6.65499999999997,11.932 6.49299999999999,11.997 6.30700000000002,11.999 C6.31,11.999 6.31299999999999,12 6.31599999999997,12 C6.31599999999997,12 6.298,12 6.298,12 C6.30099999999999,12 6.30399999999997,11.999 6.30700000000002,11.999 C6.12099999999998,11.997 5.959,11.932 5.822,11.803 C5.68400000000003,11.672 5.61399999999998,11.517 5.61399999999998,11.337 C5.61399999999998,11.337 5.61399999999998,5.96600000000001 5.61399999999998,5.96600000000001 C5.61399999999998,5.96600000000001 4.81799999999998,5.96600000000001 4.81799999999998,5.96600000000001 C4.76999999999998,5.96600000000001 4.72899999999998,5.94999999999999 4.69499999999999,5.91699999999997 C4.66000000000003,5.88400000000001 4.642,5.846 4.642,5.80099999999999 C4.642,5.80099999999999 4.642,1.65699999999998 4.642,1.65699999999998 C4.642,1.202 4.81400000000002,0.81099999999998 5.15800000000002,0.48700000000002 C5.50099999999998,0.16199999999998 5.91399999999999,0 6.39699999999999,0 C6.39699999999999,0 6.649,0 6.649,0 C6.74400000000003,0 6.82600000000002,0.03300000000002 6.89600000000002,0.09800000000001 C6.96499999999997,0.16399999999999 7,0.24200000000002 7,0.33100000000002 C7,0.33100000000002 7,11.337 7,11.337 C7,11.517 6.93000000000001,11.672 6.79199999999997,11.803 ZM2.51900000000001,4.31200000000001 C2.51900000000001,4.31200000000001 2.51900000000001,11.201 2.51900000000001,11.201 C2.51900000000001,11.381 2.44999999999999,11.536 2.31099999999998,11.667 C2.17399999999998,11.796 2.01299999999998,11.861 1.827,11.863 C1.82900000000001,11.863 1.83199999999999,11.864 1.83499999999998,11.864 C1.83499999999998,11.864 1.81700000000001,11.864 1.81700000000001,11.864 C1.81999999999999,11.864 1.82299999999998,11.863 1.82600000000002,11.863 C1.63999999999999,11.861 1.47800000000001,11.796 1.34199999999998,11.667 C1.20299999999997,11.536 1.13400000000001,11.381 1.13400000000001,11.201 C1.13400000000001,11.201 1.13400000000001,4.31200000000001 1.13400000000001,4.31200000000001 C0.92500000000001,4.24299999999999 0,3.58499999999998 0,3.37400000000002 C0,3.37400000000002 0,0.60300000000001 0,0.60300000000001 C0,0.51400000000001 0.03500000000003,0.43599999999998 0.10399999999998,0.37 C0.17399999999998,0.30500000000001 0.25599999999997,0.27199999999999 0.351,0.27199999999999 C0.44600000000003,0.27199999999999 0.52800000000002,0.30500000000001 0.59800000000001,0.37 C0.66699999999997,0.43599999999998 0.702,0.51400000000001 0.702,0.60300000000001 C0.702,0.60300000000001 0.702,2.75799999999998 0.702,2.75799999999998 C0.702,2.84800000000001 0.73599999999999,2.92500000000001 0.80599999999998,2.99099999999999 C0.875,3.05700000000002 0.95699999999999,3.089 1.053,3.089 C1.14800000000002,3.089 1.23000000000002,3.05700000000002 1.29899999999998,2.99099999999999 C1.36900000000003,2.92500000000001 1.404,2.84800000000001 1.404,2.75799999999998 C1.404,2.75799999999998 1.404,0.60300000000001 1.404,0.60300000000001 C1.404,0.51400000000001 1.43799999999999,0.43599999999998 1.50799999999998,0.37 C1.577,0.30500000000001 1.65899999999999,0.27199999999999 1.75400000000002,0.27199999999999 C1.84899999999999,0.27199999999999 1.93200000000002,0.30500000000001 2.00099999999998,0.37 C2.06999999999999,0.43599999999998 2.10500000000002,0.51400000000001 2.10500000000002,0.60300000000001 C2.10500000000002,0.60300000000001 2.10500000000002,2.75799999999998 2.10500000000002,2.75799999999998 C2.10500000000002,2.84800000000001 2.13999999999999,2.92500000000001 2.209,2.99099999999999 C2.279,3.05700000000002 2.36099999999999,3.089 2.45600000000002,3.089 C2.55099999999999,3.089 2.63299999999998,3.05700000000002 2.70299999999997,2.99099999999999 C2.77199999999999,2.92500000000001 2.80700000000002,2.84800000000001 2.80700000000002,2.75799999999998 C2.80700000000002,2.75799999999998 2.80700000000002,0.60300000000001 2.80700000000002,0.60300000000001 C2.80700000000002,0.51400000000001 2.84199999999998,0.43599999999998 2.911,0.37 C2.98099999999999,0.30500000000001 3.06299999999999,0.27199999999999 3.15800000000002,0.27199999999999 C3.25299999999999,0.27199999999999 3.33499999999998,0.30500000000001 3.40499999999997,0.37 C3.47399999999999,0.43599999999998 3.50900000000001,0.51400000000001 3.50900000000001,0.60300000000001 C3.50900000000001,0.60300000000001 3.50900000000001,3.37400000000002 3.50900000000001,3.37400000000002 C3.50900000000001,3.58499999999998 2.72800000000001,4.24299999999999 2.51900000000001,4.31200000000001 Z "/></svg>

<svg baseProfile="full" xmlns="http://www.w3.org/2000/svg" height="12" width="7"><path fill="rgb( 255, 102, 0 )" d="M6.792 11.803c-.137.129-.299.194-.485.196l.009.001h-.018l.009-.001c-.186-.002-.348-.067-.485-.196-.138-.131-.208-.286-.208-.466v-5.371h-.796l-.123-.049-.053-.116v-4.144c0-.455.172-.846.516-1.17.343-.325.756-.487 1.239-.487h.252c.095 0 .177.033.247.098.069.066.104.144.104.233v11.006c0 .18-.07.335-.208.466zm-4.273-7.491v6.889c0 .18-.069.335-.208.466-.137.129-.298.194-.484.196l.008.001h-.018l.009-.001c-.186-.002-.348-.067-.484-.196-.139-.131-.208-.286-.208-.466v-6.889c-.209-.069-1.134-.727-1.134-.938v-2.771c0-.089.035-.167.104-.233.07-.065.152-.098.247-.098s.177.033.247.098c.069.066.104.144.104.233v2.155c0 .09.034.167.104.233.069.066.151.098.247.098.095 0 .177-.032.246-.098.07-.066.105-.143.105-.233v-2.155c0-.089.034-.167.104-.233.069-.065.151-.098.246-.098s.178.033.247.098c.069.066.104.144.104.233v2.155c0 .09.035.167.104.233.07.066.152.098.247.098s.177-.032.247-.098c.069-.066.104-.143.104-.233v-2.155c0-.089.035-.167.104-.233.07-.065.152-.098.247-.098s.177.033.247.098c.069.066.104.144.104.233v2.771c0 .211-.781.869-.99.938z"/></svg>
